flaticon/household/ottoman.svg

<svg xmlns="http://www.w3.org/2000/svg" width="32" height="32" viewBox="0 0 24 24">
    <path d="M20.144531 8.144531C20.144531 8.378906 19.949219 8.570312 19.714844 8.570312 19.476562 8.570312 19.285156 8.378906 19.285156 8.144531 19.285156 7.90625 19.476562 7.714844 19.714844 7.714844 19.949219 7.714844 20.144531 7.90625 20.144531 8.144531zM20.144531 11.570312C20.144531 11.808594 19.949219 12 19.714844 12 19.476562 12 19.285156 11.808594 19.285156 11.570312 19.285156 11.335938 19.476562 11.144531 19.714844 11.144531 19.949219 11.144531 20.144531 11.335938 20.144531 11.570312zM20.144531 15C20.144531 15.238281 19.949219 15.429688 19.714844 15.429688 19.476562 15.429688 19.285156 15.238281 19.285156 15 19.285156 14.761719 19.476562 14.570312 19.714844 14.570312 19.949219 14.570312 20.144531 14.761719 20.144531 15zM16.285156 8.144531C16.285156 8.378906 16.09375 8.570312 15.855469 8.570312 15.621094 8.570312 15.429688 8.378906 15.429688 8.144531 15.429688 7.90625 15.621094 7.714844 15.855469 7.714844 16.09375 7.714844 16.285156 7.90625 16.285156 8.144531zM16.285156 11.570312C16.285156 11.808594 16.09375 12 15.855469 12 15.621094 12 15.429688 11.808594 15.429688 11.570312 15.429688 11.335938 15.621094 11.144531 15.855469 11.144531 16.09375 11.144531 16.285156 11.335938 16.285156 11.570312zM16.285156 15C16.285156 15.238281 16.09375 15.429688 15.855469 15.429688 15.621094 15.429688 15.429688 15.238281 15.429688 15 15.429688 14.761719 15.621094 14.570312 15.855469 14.570312 16.09375 14.570312 16.285156 14.761719 16.285156 15zM12.429688 8.144531C12.429688 8.378906 12.238281 8.570312 12 8.570312 11.761719 8.570312 11.570312 8.378906 11.570312 8.144531 11.570312 7.90625 11.761719 7.714844 12 7.714844 12.238281 7.714844 12.429688 7.90625 12.429688 8.144531zM12.429688 11.570312C12.429688 11.808594 12.238281 12 12 12 11.761719 12 11.570312 11.808594 11.570312 11.570312 11.570312 11.335938 11.761719 11.144531 12 11.144531 12.238281 11.144531 12.429688 11.335938 12.429688 11.570312zM12.429688 15C12.429688 15.238281 12.238281 15.429688 12 15.429688 11.761719 15.429688 11.570312 15.238281 11.570312 15 11.570312 14.761719 11.761719 14.570312 12 14.570312 12.238281 14.570312 12.429688 14.761719 12.429688 15zM8.570312 8.144531C8.570312 8.378906 8.378906 8.570312 8.144531 8.570312 7.90625 8.570312 7.714844 8.378906 7.714844 8.144531 7.714844 7.90625 7.90625 7.714844 8.144531 7.714844 8.378906 7.714844 8.570312 7.90625 8.570312 8.144531zM8.570312 11.570312C8.570312 11.808594 8.378906 12 8.144531 12 7.90625 12 7.714844 11.808594 7.714844 11.570312 7.714844 11.335938 7.90625 11.144531 8.144531 11.144531 8.378906 11.144531 8.570312 11.335938 8.570312 11.570312zM8.570312 15C8.570312 15.238281 8.378906 15.429688 8.144531 15.429688 7.90625 15.429688 7.714844 15.238281 7.714844 15 7.714844 14.761719 7.90625 14.570312 8.144531 14.570312 8.378906 14.570312 8.570312 14.761719 8.570312 15zM4.714844 8.144531C4.714844 8.378906 4.523438 8.570312 4.285156 8.570312 4.050781 8.570312 3.855469 8.378906 3.855469 8.144531 3.855469 7.90625 4.050781 7.714844 4.285156 7.714844 4.523438 7.714844 4.714844 7.90625 4.714844 8.144531zM4.714844 11.570312C4.714844 11.808594 4.523438 12 4.285156 12 4.050781 12 3.855469 11.808594 3.855469 11.570312 3.855469 11.335938 4.050781 11.144531 4.285156 11.144531 4.523438 11.144531 4.714844 11.335938 4.714844 11.570312zM4.714844 15C4.714844 15.238281 4.523438 15.429688 4.285156 15.429688 4.050781 15.429688 3.855469 15.238281 3.855469 15 3.855469 14.761719 4.050781 14.570312 4.285156 14.570312 4.523438 14.570312 4.714844 14.761719 4.714844 15zM20.144531 18.429688C20.144531 18.664062 19.949219 18.855469 19.714844 18.855469 19.476562 18.855469 19.285156 18.664062 19.285156 18.429688 19.285156 18.191406 19.476562 18 19.714844 18 19.949219 18 20.144531 18.191406 20.144531 18.429688zM16.285156 18.429688C16.285156 18.664062 16.09375 18.855469 15.855469 18.855469 15.621094 18.855469 15.429688 18.664062 15.429688 18.429688 15.429688 18.191406 15.621094 18 15.855469 18 16.09375 18 16.285156 18.191406 16.285156 18.429688zM12.429688 18.429688C12.429688 18.664062 12.238281 18.855469 12 18.855469 11.761719 18.855469 11.570312 18.664062 11.570312 18.429688 11.570312 18.191406 11.761719 18 12 18 12.238281 18 12.429688 18.191406 12.429688 18.429688zM8.570312 18.429688C8.570312 18.664062 8.378906 18.855469 8.144531 18.855469 7.90625 18.855469 7.714844 18.664062 7.714844 18.429688 7.714844 18.191406 7.90625 18 8.144531 18 8.378906 18 8.570312 18.191406 8.570312 18.429688zM4.714844 18.429688C4.714844 18.664062 4.523438 18.855469 4.285156 18.855469 4.050781 18.855469 3.855469 18.664062 3.855469 18.429688 3.855469 18.191406 4.050781 18 4.285156 18 4.523438 18 4.714844 18.191406 4.714844 18.429688zM4.714844 18.429688"/>
    <path d="M 23.101562 2.203125 C 23.101562 2.191406 23.097656 2.175781 23.097656 2.164062 C 23.070312 2.03125 23.035156 1.90625 22.992188 1.78125 C 22.980469 1.738281 22.964844 1.699219 22.949219 1.660156 C 22.910156 1.566406 22.867188 1.472656 22.820312 1.386719 C 22.785156 1.316406 22.746094 1.25 22.703125 1.1875 C 22.664062 1.128906 22.625 1.070312 22.585938 1.015625 C 22.523438 0.9375 22.460938 0.863281 22.394531 0.792969 C 22.355469 0.753906 22.316406 0.714844 22.277344 0.675781 C 22.214844 0.617188 22.148438 0.5625 22.078125 0.511719 C 22.019531 0.464844 21.960938 0.421875 21.898438 0.382812 C 21.847656 0.351562 21.796875 0.320312 21.746094 0.292969 C 21.652344 0.242188 21.554688 0.199219 21.453125 0.164062 C 21.417969 0.148438 21.378906 0.132812 21.339844 0.121094 C 21.21875 0.0820312 21.09375 0.0546875 20.96875 0.0351562 C 20.957031 0.03125 20.945312 0.0273438 20.933594 0.0234375 C 20.917969 0.0234375 20.902344 0.0234375 20.886719 0.0195312 C 20.867188 0.0195312 20.84375 0.015625 20.824219 0.0117188 C 20.785156 0.0078125 20.746094 0.0078125 20.707031 0.0078125 C 20.660156 0.00390625 20.617188 0 20.570312 0 C 20.5 0 20.433594 0.0078125 20.367188 0.0117188 C 20.332031 0.015625 20.300781 0.015625 20.269531 0.0195312 C 20.183594 0.0273438 20.097656 0.0429688 20.015625 0.0625 C 20.003906 0.0664062 19.988281 0.0664062 19.976562 0.0703125 C 19.570312 0.164062 19.199219 0.355469 18.882812 0.632812 C 18.878906 0.636719 18.875 0.636719 18.875 0.640625 C 18.796875 0.710938 18.71875 0.785156 18.648438 0.863281 C 18.585938 0.9375 18.496094 0.976562 18.410156 0.976562 C 18.332031 0.972656 18.285156 0.953125 18.242188 0.902344 C 17.753906 0.328125 17.039062 0 16.285156 0 C 15.53125 0 14.816406 0.328125 14.328125 0.90625 C 14.238281 1.007812 14.046875 1.007812 13.957031 0.902344 C 13.46875 0.328125 12.753906 0 12 0 C 11.246094 0 10.53125 0.328125 10.042969 0.90625 C 9.953125 1.007812 9.761719 1.007812 9.671875 0.902344 C 9.183594 0.328125 8.46875 0 7.714844 0 C 6.960938 0 6.246094 0.328125 5.757812 0.902344 C 5.714844 0.953125 5.660156 0.988281 5.589844 0.976562 C 5.503906 0.976562 5.414062 0.9375 5.351562 0.863281 C 5.28125 0.785156 5.203125 0.710938 5.125 0.640625 C 5.125 0.636719 5.121094 0.636719 5.121094 0.636719 C 4.722656 0.285156 4.238281 0.0742188 3.714844 0.015625 C 3.699219 0.015625 3.6875 0.015625 3.671875 0.015625 C 3.589844 0.0078125 3.507812 0.00390625 3.421875 0.00390625 C 3.382812 0.00390625 3.339844 0.00390625 3.300781 0.0078125 C 3.257812 0.0078125 3.21875 0.0078125 3.175781 0.0117188 C 3.15625 0.015625 3.136719 0.0195312 3.117188 0.0195312 C 3.101562 0.0234375 3.085938 0.0234375 3.066406 0.0234375 C 3.054688 0.0273438 3.039062 0.03125 3.027344 0.0351562 C 2.902344 0.0546875 2.78125 0.0820312 2.664062 0.121094 C 2.621094 0.132812 2.582031 0.148438 2.542969 0.164062 C 2.445312 0.203125 2.347656 0.242188 2.253906 0.292969 C 2.203125 0.320312 2.152344 0.351562 2.101562 0.386719 C 2.042969 0.421875 1.984375 0.464844 1.925781 0.503906 C 1.855469 0.558594 1.789062 0.617188 1.722656 0.675781 C 1.683594 0.714844 1.644531 0.75 1.609375 0.789062 C 1.542969 0.863281 1.476562 0.9375 1.414062 1.015625 C 1.375 1.070312 1.335938 1.125 1.300781 1.183594 C 1.257812 1.25 1.214844 1.316406 1.179688 1.386719 C 1.132812 1.472656 1.089844 1.5625 1.050781 1.65625 C 1.035156 1.699219 1.019531 1.738281 1.007812 1.78125 C 0.964844 1.90625 0.929688 2.03125 0.902344 2.164062 C 0.902344 2.175781 0.898438 2.191406 0.898438 2.203125 C 0.871094 2.351562 0.855469 2.507812 0.855469 2.664062 L 0.855469 21.855469 L 1.714844 21.855469 L 1.714844 23.570312 C 1.714844 23.808594 1.90625 24 2.144531 24 L 3.429688 24 C 3.605469 24 3.761719 23.894531 3.828125 23.730469 L 4.574219 21.855469 L 19.425781 21.855469 L 20.171875 23.730469 C 20.238281 23.894531 20.394531 24 20.570312 24 L 21.855469 24 C 22.09375 24 22.285156 23.808594 22.285156 23.570312 L 22.285156 21.855469 L 23.144531 21.855469 L 23.144531 2.664062 C 23.144531 2.507812 23.128906 2.351562 23.101562 2.203125 Z M 5.601562 1.835938 C 5.917969 1.832031 6.203125 1.699219 6.410156 1.460938 C 6.734375 1.078125 7.210938 0.855469 7.714844 0.855469 C 8.21875 0.855469 8.691406 1.078125 9.019531 1.460938 C 9.433594 1.949219 10.28125 1.949219 10.695312 1.460938 C 11.019531 1.078125 11.496094 0.855469 12 0.855469 C 12.503906 0.855469 12.980469 1.078125 13.304688 1.460938 C 13.722656 1.949219 14.566406 1.949219 14.980469 1.460938 C 15.308594 1.078125 15.78125 0.855469 16.285156 0.855469 C 16.789062 0.855469 17.265625 1.078125 17.589844 1.460938 C 17.796875 1.699219 18.082031 1.832031 18.398438 1.835938 C 18.75 1.832031 19.058594 1.691406 19.289062 1.433594 C 19.574219 1.113281 19.964844 0.914062 20.386719 0.867188 C 20.390625 0.867188 20.394531 0.867188 20.398438 0.867188 C 20.460938 0.863281 20.519531 0.859375 20.582031 0.859375 C 20.605469 0.859375 20.625 0.859375 20.648438 0.863281 C 20.6875 0.863281 20.726562 0.867188 20.765625 0.871094 C 20.835938 0.878906 20.902344 0.894531 20.96875 0.910156 C 21.003906 0.917969 21.039062 0.925781 21.074219 0.9375 C 21.164062 0.964844 21.253906 1 21.335938 1.046875 C 21.339844 1.046875 21.34375 1.050781 21.351562 1.050781 C 21.90625 1.351562 22.285156 1.96875 22.285156 2.664062 L 22.285156 4.714844 L 1.714844 4.714844 L 1.714844 2.664062 C 1.714844 1.96875 2.09375 1.351562 2.652344 1.050781 C 2.652344 1.050781 2.65625 1.050781 2.660156 1.046875 C 2.742188 1.003906 2.832031 0.964844 2.925781 0.9375 C 2.957031 0.925781 2.992188 0.921875 3.023438 0.910156 C 3.09375 0.894531 3.160156 0.878906 3.234375 0.871094 C 3.273438 0.867188 3.3125 0.863281 3.351562 0.859375 C 3.375 0.859375 3.394531 0.859375 3.417969 0.859375 C 3.480469 0.859375 3.539062 0.859375 3.601562 0.867188 C 3.605469 0.867188 3.609375 0.867188 3.617188 0.867188 C 4.035156 0.914062 4.425781 1.113281 4.710938 1.433594 C 4.941406 1.691406 5.273438 1.832031 5.601562 1.835938 Z M 3.136719 23.144531 L 2.570312 23.144531 L 2.570312 21.855469 L 3.652344 21.855469 Z M 21.429688 23.144531 L 20.863281 23.144531 L 20.347656 21.855469 L 21.429688 21.855469 Z M 22.285156 21 L 1.714844 21 L 1.714844 5.570312 L 22.285156 5.570312 Z M 22.285156 21"/>
</svg>

<svg xmlns="http://www.w3.org/2000/svg" width="32" height="32" viewBox="0 0 24 24">
    <path d="M20.145 8.145a.43.43 0 0 1-.86 0c0-.239.192-.43.43-.43a.43.43 0 0 1 .43.43zm0 0M20.145 11.57a.43.43 0 0 1-.43.43.428.428 0 1 1 0-.855.43.43 0 0 1 .43.425zm0 0M20.145 15a.43.43 0 0 1-.43.43.428.428 0 0 1-.43-.43c0-.238.192-.43.43-.43a.43.43 0 0 1 .43.43zm0 0M16.285 8.145a.428.428 0 1 1-.855-.004.428.428 0 0 1 .855.004zm0 0M16.285 11.57a.428.428 0 1 1-.857.003.428.428 0 0 1 .857-.003zm0 0M16.285 15a.428.428 0 1 1-.855 0 .428.428 0 1 1 .855 0zm0 0M12.43 8.145a.428.428 0 0 1-.43.425.428.428 0 1 1 0-.855c.238 0 .43.191.43.43zm0 0M12.43 11.57c0 .239-.192.43-.43.43a.428.428 0 1 1 0-.855c.238 0 .43.19.43.425zm0 0M12.43 15c0 .238-.192.43-.43.43a.428.428 0 0 1-.43-.43c0-.238.192-.43.43-.43s.43.192.43.43zm0 0M8.57 8.145a.427.427 0 1 1-.853-.002.427.427 0 0 1 .853.002zm0 0M8.57 11.57a.428.428 0 1 1-.855.004.428.428 0 0 1 .855-.004zm0 0M8.57 15a.428.428 0 1 1-.855 0 .428.428 0 1 1 .855 0zm0 0M4.715 8.145a.43.43 0 0 1-.86 0 .43.43 0 0 1 .43-.43c.238 0 .43.191.43.43zm0 0M4.715 11.57c0 .239-.192.43-.43.43a.43.43 0 0 1-.43-.43.43.43 0 0 1 .86 0zm0 0M4.715 15c0 .238-.192.43-.43.43a.43.43 0 0 1-.43-.43.43.43 0 0 1 .43-.43c.238 0 .43.192.43.43zm0 0M20.145 18.43a.43.43 0 0 1-.86 0c0-.239.192-.43.43-.43a.43.43 0 0 1 .43.43zm0 0M16.285 18.43a.428.428 0 1 1-.855-.004.428.428 0 0 1 .855.004zm0 0M12.43 18.43a.428.428 0 0 1-.43.425.428.428 0 1 1 0-.855c.238 0 .43.191.43.43zm0 0M8.57 18.43a.427.427 0 1 1-.853-.002.427.427 0 0 1 .853.002zm0 0M4.715 18.43a.43.43 0 0 1-.86 0 .43.43 0 0 1 .43-.43c.238 0 .43.191.43.43zm0 0"/>
    <path d="M23.102 2.203c0-.012-.004-.027-.004-.039a3.07 3.07 0 0 0-.106-.383c-.012-.043-.027-.082-.043-.12a2.931 2.931 0 0 0-.246-.474c-.039-.058-.078-.117-.117-.171a3.568 3.568 0 0 0-.191-.223l-.118-.117a2.02 2.02 0 0 0-.199-.164 1.892 1.892 0 0 0-.18-.13c-.05-.03-.101-.062-.152-.089a1.96 1.96 0 0 0-.293-.129.972.972 0 0 0-.113-.043 2.433 2.433 0 0 0-.371-.086l-.035-.012c-.016 0-.032 0-.047-.003a.342.342 0 0 1-.063-.008c-.039-.004-.078-.004-.117-.004C20.66.004 20.617 0 20.57 0c-.07 0-.136.008-.203.012-.035.004-.066.004-.097.008a1.813 1.813 0 0 0-.254.042c-.012.004-.028.004-.04.008a2.506 2.506 0 0 0-1.093.563c-.004.004-.008.004-.008.008-.078.07-.156.144-.227.222a.315.315 0 0 1-.238.114c-.078-.004-.125-.024-.168-.075A2.565 2.565 0 0 0 16.285 0c-.754 0-1.469.328-1.957.906-.09.102-.281.102-.371-.004A2.565 2.565 0 0 0 12 0c-.754 0-1.469.328-1.957.906-.09.102-.281.102-.371-.004A2.565 2.565 0 0 0 7.715 0C6.96 0 6.246.328 5.758.902c-.043.051-.098.086-.168.075a.315.315 0 0 1-.238-.114 3.047 3.047 0 0 0-.227-.222c0-.004-.004-.004-.004-.004A2.533 2.533 0 0 0 3.715.016h-.043a2.615 2.615 0 0 0-.25-.012c-.04 0-.082 0-.121.004-.043 0-.082 0-.125.004a.302.302 0 0 1-.059.008c-.015.003-.031.003-.05.003l-.04.012c-.125.02-.246.047-.363.086a2.719 2.719 0 0 0-.41.172c-.05.027-.102.059-.152.094-.059.035-.118.078-.176.117-.07.055-.137.113-.203.172-.04.039-.078.074-.114.113-.066.074-.132.148-.195.227-.039.054-.078.109-.113.168a2.857 2.857 0 0 0-.25.473c-.016.042-.031.081-.043.124a3.07 3.07 0 0 0-.106.383c0 .012-.004.027-.004.04a2.56 2.56 0 0 0-.043.46v19.191h.86v1.715c0 .239.191.43.43.43H3.43a.428.428 0 0 0 .398-.27l.746-1.875h14.852l.746 1.875c.066.165.223.27.398.27h1.285c.239 0 .43-.191.43-.43v-1.715h.86V2.665a2.56 2.56 0 0 0-.043-.462zm-17.5-.367c.316-.004.601-.137.808-.375a1.71 1.71 0 0 1 2.61 0c.414.488 1.261.488 1.675 0a1.71 1.71 0 0 1 2.61 0c.418.488 1.261.488 1.675 0a1.71 1.71 0 0 1 2.61 0c.207.238.492.371.808.375.352-.004.66-.145.891-.402a1.72 1.72 0 0 1 1.098-.567h.011c.063-.004.122-.008.184-.008.023 0 .043 0 .066.004.04 0 .079.004.118.008.07.008.136.024.203.04a1.28 1.28 0 0 1 .367.137c.004-.001.008.003.016.003.554.3.933.918.933 1.613v2.05H1.715v-2.05c0-.695.379-1.312.937-1.613 0 0 .004 0 .008-.004.082-.043.172-.082.266-.11.031-.011.066-.015.097-.027.07-.015.137-.031.211-.039L3.352.86h.066c.062 0 .121 0 .184.008h.015c.418.047.809.246 1.094.567.23.257.562.398.89.402zM3.137 23.145H2.57v-1.29h1.082zm18.293 0h-.567l-.515-1.29h1.082zM22.285 21H1.715V5.57h20.57zm0 0"/>
</svg>
